X:2
T:An Droichead Beag
T:The Little Bridge
M:4/4
L:1/8
K:D
|:ag|"D"f2 df "A"edce|"D"ddcd BAFA|DDFA dcde|fgfd "A"e2 ag|!
"D"ffdf "A"eece|"D"ddcd BAFA|DDFA dcde|"A"fgef "D"d2:|!
|:dc|"Bm"~B2 BcdB BB|fgfg fBBB|"D"AAFA dcde|fgfd "A"e2 dc|!
"Bm"(3BcB BcdB BB|fgfg fBBB|"D"AAFA dcde|"A"fgef "D"d2:|!
|:ef|"A"ggfg eAAA|"D"ffef dAAA|DDFA dcde|fgfd "A"e2 ef|!
"A"ggfg eAAA|"D"ffef dAAA|DDFA dcde|"A"fgef "D"d2:|

